icons/people-24.svg

<svg xmlns="http://www.w3.org/2000/svg" width="24" height="24" viewBox="0 0 24 24"><path d="M3.5 8a5.5 5.5 0 118.596 4.547 9.005 9.005 0 015.9 8.18.751.751 0 01-1.5.045 7.5 7.5 0 00-14.993 0 .75.75 0 01-1.499-.044 9.005 9.005 0 015.9-8.181A5.496 5.496 0 013.5 8zM9 4a4 4 0 100 8 4 4 0 000-8zm8.29 4c-.148 0-.292.01-.434.03a.75.75 0 11-.212-1.484 4.53 4.53 0 013.38 8.097 6.69 6.69 0 013.956 6.107.75.75 0 01-1.5 0 5.193 5.193 0 00-3.696-4.972l-.534-.16v-1.676l.41-.209A3.03 3.03 0 0017.29 8z"/></svg>

<svg xmlns="http://www.w3.org/2000/svg" width="24" height="24" viewBox="0 0 24 24">
  <defs/>
  <path d="M3.5,8 C3.501,5.382 5.346,3.128 7.912,2.61 C10.478,2.092 13.053,3.454 14.069,5.867 C15.085,8.279 14.26,11.073 12.096,12.547 C15.548,13.813 17.884,17.051 17.996,20.727 C18.008,21.141 17.683,21.487 17.268,21.5 C16.854,21.512 16.508,21.186 16.496,20.772 C16.372,16.721 13.052,13.501 9,13.501 C4.947,13.501 1.627,16.721 1.503,20.772 C1.482,21.179 1.14,21.495 0.732,21.483 C0.324,21.471 0.001,21.136 0.004,20.728 C0.116,17.052 2.451,13.813 5.904,12.547 C4.399,11.523 3.499,9.82 3.5,8 Z M9,4 C6.791,4 5,5.791 5,8 C5,10.209 6.791,12 9,12 C11.209,12 13,10.209 13,8 C13,5.791 11.209,4 9,4 Z"/>
  <path d="M17.29,8 C17.142,8 16.998,8.01 16.856,8.03 A0.75 0.75 0 1 1 16.644,6.546 A4.53 4.53 0 0 1 20.024,14.643 A6.69 6.69 0 0 1 23.98,20.75 A0.75 0.75 0 0 1 22.48,20.75 A5.193 5.193 0 0 0 18.784,15.778 L18.25,15.618 L18.25,13.942 L18.66,13.733 A3.03 3.03 0 0 0 17.29,8 Z"/>
</svg>
